X:1
T:Take the World for Jesus
T:Take the World for Jesus
T:J. Howard Entwisle
T:J. Howard Entwisle, 1899
T:Public Domain Courtesy of the Cyber Hymnal™
T:Public Domain Courtesy of the Cyber Hymnal™
C:J. Howard Entwisle
Z:Public Domain
Z:Courtesy of the Cyber Hymnal™
%%score ( 1 2 ) ( 3 4 )
L:1/8
Q:1/4=105
M:4/4
K:C
V:1 treble 
V:2 treble 
V:3 bass 
V:4 bass 
V:1
 G>G | [Ec]2 [Ge]2 [Fd][Fc][GB][FA] | [EG]2 [DG]>[DF] [CE]2 [CE]>[CE] | %3
w: “Take the|world for Je- sus,” sound the|great bat- tle cry, Let the|
w: ~ ~|~ ~ ~ ~ ~ ~|~ ~ ~ ~ ~ ~|
 [B,F]2 [B,F]2 [B,F]2 [B,G]2 | ([CE]4 [CE]2) G>G | [Ec]2 [Ge]2 [Fd][Fc][GB][FA] | %6
w: might- y cho- rus|ring; * “Take the|world for Je- sus,” raise the|
w: ~ ~ ~ ~|~ * ~ ~|~ ~ ~ ~ ~ ~|
 [EG]2 [DG]>[DF] [CE]2 G>G | [FA]2 [Fd]>[Fc] [FB]2 [Fe]>[Fd] | [Ec]6!fine! |: %9
w: bright stand- ard high, As we|shout, as we march, as we|sing.|
w: ~ ~ ~ ~ ~ ~|~ ~ ~ ~ ~ ~|~|
"^1st time female voices" E>E | [Ec]3 [EB] [EA]2 [E^G]2 | %11
w: Let the|Gos- pel sto- ry|
w: Le- t|all the na- tions|
"^2d all voices in unison" [EA][EB][Ec][Ed] [Ee]2 [Ed][Ec] | [EB]2 [EB]2 [EA]2 [EA]2 | %13
w: roll a- round the world, Ev- ery-|where let joy pre-|
w: now in Him re- joice, Who hath|by His pre- cious|
 (z2 E>)E x8 | [EA]3 [E^G] [EA]2 [EB]2 | [Ec]2 [Ec]2 [Fd][Fc][GB][FA] |1 %16
w: * vail,|Since the sac- ri-|fice of Christ our Sav- ior|
w: * blood|R- e- deemed us,|and pre- pared a man- sion|
 [EG]2 [FA]>[EG] [DF]2 [EG]>[DF] | [CE]6 :|2 [EG]2 [Ge]>[Ec] [Fd]2 [Fd]2 || [E-c]4 [E_B]4 |: %20
w: For the sins of the world|doth|a- vail. ~ ~ ~|~ *|
w: In the ~ ~ ~ ~|~|~ ~ bright glo- ry|land *|
[K:F][M:6/8] [FA][GB][Ac] F[EG][FA] | [DG][DA][DB] [B,D]3 | [B,E][B,D]C [Ec][EG][GB] | %23
w: ~ ~ Out on the mount-|ains of sin and|des- pair, Mil- lions are per-|
w: a- bove. Tell them of Je-|sus who rose from|the grave, Tell them of Je-|
 [GB][FA][F^G] [FA]3 | [FA][GB][Ac] F[FG][FA] | [FB][FB][Fc] [Fd]3 | [Fd][Fe][Fd] [Fc][Fd][FB] | %27
w: ish- ing, need- ing|our care; Shall we not send|them the mes- sage|to- day? Shall we not help|
w: sus the Mighty to|Save; Plen- te- ous sal- va-|tion in Him doth|a- bound, Cleans- ing and heal-|
 [EA][EB][EG] F3!D.C.! :| %28
w: with- out fur- ther|
w: ing in Je- sus|
V:2
 G>G | x8 | x8 | x8 | x6 G>G | x8 | x6 G>G | x8 | x6 |: E>E | x8 | x8 | x8 | ([E^G]6 E>E E2) E>E | %14
 x8 | x8 |1 x8 | x6 :|2 x8 || x8 |:[K:F][M:6/8] x3 F x2 | x6 | x2 C x3 | x6 | x3 F x2 | x6 | x6 | %27
 x3 F3 :| %28
V:3
 G,>G, | [C,G,]2 [C,C]2 [F,A,][F,A,][F,C][F,C] | [G,C]2 [G,B,]>G, [C,G,]2 [C,G,]>[C,G,] | %3
 [D,G,]2 [G,,G,]2 [D,G,]2 [G,,G,]2 | [C,G,]2 [G,,G,]2 [C,G,]2 G,>G, | %5
 [C,G,]2 [C,C]2 [F,A,][F,A,][F,C][F,C] | [G,C]2 [G,B,]>G, [C,G,]2 [E,C]>[E,C] | %7
 [F,C]2 [F,A,]>[F,A,] G,2 [G,B,]>[G,B,] | [C,C]6 |: E,>E, | [A,,A,]3 [B,,D] [C,C]2 B,2 | %11
 [C,A,][E,^G,]A,[A,B,] [A,C]2 [A,B,]A, | [^G,D]2 [G,D]2 [A,C]2 [A,C]2 | [E,B,]6 [E,G,]>[E,G,] x4 | %14
 [C,A,]3 [B,,D] [A,,C]2 [E,G,]2 | A,2 [G,_B,]2 [F,A,][F,A,][F,C][F,C] |1 %16
 [G,C]2 [G,C]>[G,C] [G,B,]2 G,>G, | [C,G,]6 :|2 [G,C]2 [G,C]>[G,C] [G,B,]2 G,2 || %19
 [C,-G,]4 [C,C]4 |:[K:F][M:6/8] [F,C][F,C][F,C] [A,C][G,C][F,C] | [B,,B,][A,,^F,][G,,G,] [G,,G,]3 | %22
 [C,G,][C,F,][C,E,] [C,G,][C,C][E,C] | [F,C][F,C][F,=B,] [F,C]3 | %24
 [F,C][F,C][F,C] [F,A,][F,B,][F,C] | [D,B,][D,B,][C,A,] [D,B,]3 | %26
 [=B,,^G,][B,,G,][B,,G,] [C,A,][C,=B,][C,D] | [C,C][C,G,][C,B,] [F,A,]3 :| %28
V:4
 G,>G, | x8 | x7/2 G,/ x4 | x8 | x6 G,>G, | x8 | x7/2 G,/ x4 | x4 G,2 x2 | x6 |: E,>E, | %10
 x6 (E,D,) | x2 A, x3 A, x | x8 | x12 | x8 | A,2 x6 |1 x6 G,>G, | x6 :|2 x6 G,2 || x8 |: %20
[K:F][M:6/8] x6 | x6 | x6 | x6 | x6 | x6 | x6 | x6 :| %28

